X:0623
T:"Dermott,  My Treasure"   (air)    0623
C:Unattributed
C:with feeling
B:O'Neill's Music Of Ireland (The 1850) Lyon & Healy, Chicago, 1903 edition
Z:FROM O'NEILL'S TO NOTEWORTHY, FROM NOTEWORTHY TO ABC, MIDI AND .TXT BY VINCE
BRENNAN June 2003 (HTTP://WWW.SOSYOURMOM.COM)
Q:1/4=90
I:abc2nwc
M:3/4
L:1/8
K:G
"_VB"D2|B4AG|A4GE|D B,3D2|E (G2G2)D|D4E3/2D/2|d4c3/2B/2|"^>"B2"^>"A2"^>"G2|"^>"F2"^>"E2"^>"D3/2D/2|
B4AG|A4GE|D B,3D2|E G3G3/2A/2|B2G2e2|d B3G2|D3E G2|"^>"G4E3/2F/2|
"^>"G4F3/2"^>"E/2|G(F2F2)G|"^>"F2"^>"E2"^>"C2|(B,3/2C/2)B,2E3/2F/2|G4F3/2E/2|B4c3/2B/2|(B2A2)"^>"G3/2A/2|B4B2|
B3A "^>"GF|(A3G) FE|E2D3C|C B,3D3/2D/2|E3F GA|B2d3c|B3A G(G/4B/4A/2)|G4D2|
(B3A) GA|G4DB,|B3A GA|B d3B2|B4A3/2G/2|G4F3/2E/2|D4DC|B,4D3/2D/2|
B3A GA|G4DG|B3A GA|c B3A G/2|G3(F{FA}G)E|D B,3D2|E2G2 {GB}A2|G4z2|]
